!!!OTL: 427. Jm Rosengarten.
!!!ARE: Europa, Mitteleuropa, Deutschland
!!!SCT: E0427
!!!TXL: @@DE
!!!YEM: Copyright 1995, estate of Helmut Schaffrath.
**kern	**text
*ICvox	*
*M6/4	*
*k[b-]	*
*F:	*
!LO:TX:a:t=Melodie. Von deinet willen bin ich hie.	!
!LO:TX:a:t=Practorius, Mus. Sion. VII, 1609 Nr. 58.	!
{4c	Jung-
=1	=1
2f	-fräu-
4f	-lein,
2a	ſoll
4a	ich
=2	=2
2cc	mit
4cc	euch
2a}	gahn
{4cc	in
=3	=3
2cc	eu-
4cc	-ren
2b-	Ro-
4a	-ſen-
=4	=4
2.g	-gar-
2f}	-ten,
{4c	und
=5	=5
2f	da
4f	die
2a	ro-
4a	-ten
=6	=6
2cc	Rös-
4cc	-lein
2a}	ſtahn,
{4cc	die
=7	=7
2cc	ſchö-
4cc	-nen
2b-	und
4a	die
=8	=8
2.g	ʒar-
2f}	-ten,
{4cc	und
=9	=9
2dd	auch
4cc	ein
2cc	Baum
4b-	der
=10	=10
2.a	blü-
2g}	-het,
{4a	von
=11	=11
2b-	Ae-
4b-	-ſten
(4.cc	iſt
8b-)	.
4a	er
=12	=12
[2.g	breit,
2g]}	.
{4cc	ſo-
=13	=13
2dd	-wohl
4cc	ein
2cc	küh-
4a	-ler
=14	=14
(2f	Brun-
4cc)	.
2a}	-nen,
{4cc	der
=15	=15
2cc	auch
4cc	da-
2a	-run-
4a	-ter
=16	=16
(2.g	leit.
2f)}	.
==	==
!!!AGN: Liebes - Lied
!!!ONB: ESAC (Essen Associative Code) Database: ERK1
!!!AMT: compound duple
!!!AIN: vox
!!!EED: Helmut Schaffrath
!!!EEV: 1.0
!!!GTL: Liebeslieder [Alte (aus dem 13. bis 17. Jahrh.) mit ihrem jungen Nachwuchs]
!!!URL-scan: https://rosdok.uni-rostock.de/mcrviewer/recordIdentifier/rosdok_ppn745177662/iview2/phys_0248.iview2?x=-778.7160746633431&y=1356.316526597133&scale=0.3980252647138593&rotation=0&layout=singlePageLayout
!!!ENC: Anna Maria Matuszewska
!!!EEV: 2024/09/12
*-	*-
